ONMI/img/icons/apple.svg

<svg width="49" height="58" viewBox="0 0 49 58" fill="none" xmlns="http://www.w3.org/2000/svg">
<path d="M33.7169 0.0898438C30.9822 0.283983 27.7859 2.08059 25.9233 4.42013C24.2241 6.54249 22.8264 9.69478 23.3714 12.7582C26.3593 12.8537 29.4466 11.0143 31.2355 8.63525C32.909 6.42075 34.1754 3.2882 33.7169 0.0898438Z" fill="white"/>
<path d="M46.9499 18.6354C44.0389 14.9187 39.9478 12.7617 36.0843 12.7617C30.9838 12.7617 28.8263 15.248 25.2827 15.248C21.6288 15.248 18.8529 12.769 14.4419 12.769C10.1092 12.769 5.49567 15.4651 2.57046 20.0758C-1.54191 26.5684 -0.838151 38.7754 5.82623 49.1729C8.21118 52.8933 11.3959 57.0769 15.5615 57.1131C19.2687 57.1493 20.3137 54.692 25.336 54.6666C30.3582 54.6377 31.3108 57.1457 35.0109 57.1059C39.1801 57.0733 42.5389 52.4373 44.9239 48.7169C46.6335 46.0497 47.2698 44.707 48.5955 41.696C38.9526 37.9575 37.4065 23.9952 46.9499 18.6354Z" fill="white"/>
</svg>

<svg width="49" height="58" fill="none" xmlns="http://www.w3.org/2000/svg"><path d="M33.717.09c-2.735.194-5.931 1.99-7.794 4.33-1.699 2.122-3.097 5.275-2.552 8.338 2.988.096 6.076-1.744 7.864-4.123 1.674-2.214 2.94-5.347 2.482-8.545z" fill="#fff"/><path d="M46.95 18.635c-2.911-3.716-7.002-5.873-10.866-5.873-5.1 0-7.258 2.486-10.801 2.486-3.654 0-6.43-2.479-10.841-2.479-4.333 0-8.946 2.696-11.872 7.307-4.112 6.492-3.408 18.7 3.256 29.097 2.385 3.72 5.57 7.904 9.736 7.94 3.707.036 4.752-2.421 9.774-2.446 5.022-.03 5.975 2.479 9.675 2.439 4.17-.033 7.528-4.669 9.913-8.39 1.71-2.666 2.346-4.009 3.672-7.02-9.643-3.738-11.19-17.7-1.646-23.06z" fill="#fff"/></svg>
